X: 14066
T: Fred's Favourite
R: reel
M: 4/4
K: Amajor
|c2 cd edcA|B2 Bc dcBc|AE3 F3B|A2 GA FE E2|
cE E2 cEAc|B2 Bc dcBA|(3Bcd ec dcBd|cAAG A4:|
K: Amin
c3B A3c|B3A G2 (3Bcd|e3d cBAG|EAAG A3B|
cA3 ecAc|B3c dGBd|e2 dB cBAG|EAAG A4:|

